X:16734
T:The Fundy Polka
R:Polka
M:2/4
L:1/16
K:D
FG|A2FA f2ef|e2d2 A4|B2^AB g2fg|f2e2 e2FG|
A2FA f2ef|e2d2 A4|B2^AB gfga|b2a2 d2:|
|:B2|A2d2 a2^ga|b2a2 e3f|gfed cABc|dAdf a3B|
A2d2 a2^ga|b2a2 e3f|gfed cABc|d2f2 d2:|
